static/assets/images/networks/optimism-mono.svg

<svg width="443" height="256" viewBox="0 0 443 256" fill="none" xmlns="http://www.w3.org/2000/svg">
<path fill-rule="evenodd" clip-rule="evenodd" d="M146.913 3.35965C208.492 19.4542 229.485 101.326 193.797 183.898C153.911 272.768 37.0507 281.865 6.26117 197.893C-9.83336 146.111 6.26117 73.3358 41.2493 35.5487C69.9395 5.45894 111.925 -6.43701 146.913 3.35965ZM51.0459 146.111C55.9443 87.3311 74.1381 52.343 104.928 45.3454C114.024 42.5463 128.719 42.5463 135.717 47.4446C151.812 54.4423 158.809 68.4375 158.809 99.227C158.809 167.104 132.918 213.988 93.0316 213.988C62.9419 213.988 48.9466 190.896 51.0459 146.111ZM379.234 5.45893C423.319 11.7568 456.208 61.4399 437.314 108.324C426.818 136.314 402.326 165.005 328.152 165.005C308.558 165.005 300.161 162.206 294.563 165.704C288.965 169.903 288.265 180.399 283.367 209.09C275.669 254.574 274.27 254.574 258.175 253.874H250.478C233.684 253.874 223.887 253.874 226.686 237.78L264.473 21.5535C266.573 10.3573 271.471 5.45894 278.469 3.35965C278.469 3.35965 335.849 -0.838926 379.234 5.45893ZM379.234 56.5416C401.627 69.1373 393.229 108.324 356.142 120.22C345.646 124.418 333.05 124.418 323.953 123.719C325.353 123.719 322.554 123.719 323.953 123.719C313.457 123.719 303.66 124.418 300.861 121.619C297.362 117.421 299.461 108.324 304.36 85.2318C305.059 80.3334 303.66 88.7306 304.36 85.2318C312.057 47.4446 312.057 47.4446 337.948 47.4446C358.941 47.4446 368.038 50.2437 379.234 56.5416Z" fill="black"/>
</svg>

<svg xmlns="http://www.w3.org/2000/svg" fill="none" viewBox="0 0 443 256"><path fill="#000" fill-rule="evenodd" d="M146.913 3.36c61.579 16.094 82.572 97.966 46.884 180.538-39.886 88.87-156.746 97.967-187.536 13.995-16.094-51.782 0-124.557 34.988-162.344 28.69-30.09 70.676-41.986 105.664-32.19M51.046 146.11c4.898-58.78 23.092-93.768 53.882-100.766 9.096-2.799 23.791-2.799 30.789 2.1 16.095 6.997 23.092 20.993 23.092 51.782 0 67.877-25.891 114.761-65.777 114.761-30.09 0-44.085-23.092-41.986-67.877M379.234 5.459c44.085 6.298 76.974 55.98 58.08 102.865-10.496 27.99-34.988 56.681-109.162 56.681-19.594 0-27.991-2.799-33.589.699-5.598 4.199-6.298 14.695-11.196 43.386-7.698 45.484-9.097 45.484-25.192 44.784h-7.697c-16.794 0-26.591 0-23.792-16.094l37.787-216.226c2.1-11.197 6.998-16.095 13.996-18.194 0 0 57.38-4.199 100.765 2.099m0 51.083c22.393 12.595 13.995 51.782-23.092 63.678-10.496 4.198-23.092 4.198-32.189 3.499 1.4 0-1.399 0 0 0-10.496 0-20.293.699-23.092-2.1-3.499-4.198-1.4-13.295 3.499-36.387.699-4.899-.7 3.499 0 0 7.697-37.787 7.697-37.787 33.588-37.787 20.993 0 30.09 2.799 41.286 9.097" clip-rule="evenodd"/></svg>
